X:13
T:La pointe du jour*
O:
Z:<anamnese@laposte.net> -- http://anamnese.fr.st
M:3/4
L:1/8
Q:1/4=160
K:C
A | c2 AB3 E^F^G A2 A | c2 AB3 E^F^G A2 A |
    c2 AB3 E^F^G A2 A | c2AB3 E^F^G A3 |
AA2B c2 ce2cc2 | ce2cc2ed2cB4
A | c2AB3 E^F^G A2 A | c2AB3 E^F^G A3 |
W:C'est dans Paris y'a une brune, reste  savoir si je l'aurai (2x)
W:Oui je l'aurai quoi qu'il m'en cote, le rossignol prit sa vole
W:
W:La pointe du jour arrive arrive, les gens du jour arriveront (2x)
W:
